Newaita-dark/.DP/16/slack-indicator.svg

<svg xmlns="http://www.w3.org/2000/svg" xmlns:xlink="http://www.w3.org/1999/xlink" width="16px" height="16px" viewBox="0 0 16 16" version="1.1">
<g id="surface1">
<path style=" stroke:none;fill-rule:nonzero;fill:rgb(93.333334%,93.333334%,93.333334%);fill-opacity:1;" d="M 2.875 4.496094 C 2.554688 4.679688 2.449219 5.082031 2.632812 5.398438 L 3.625 7.117188 L 2.191406 7.945312 C 1.875 8.128906 1.765625 8.53125 1.949219 8.847656 C 2.132812 9.164062 2.535156 9.273438 2.851562 9.089844 L 4.285156 8.261719 L 5.9375 11.128906 L 4.507812 11.953125 C 4.1875 12.136719 4.082031 12.539062 4.265625 12.859375 C 4.449219 13.175781 4.851562 13.28125 5.167969 13.101562 L 6.601562 12.273438 L 7.261719 13.417969 C 7.445312 13.734375 7.847656 13.84375 8.164062 13.660156 C 8.484375 13.476562 8.589844 13.074219 8.40625 12.757812 L 7.746094 11.613281 L 10.609375 9.957031 L 11.273438 11.101562 C 11.457031 11.421875 11.859375 11.527344 12.175781 11.34375 C 12.492188 11.164062 12.601562 10.757812 12.417969 10.441406 L 11.757812 9.296875 L 13.1875 8.46875 C 13.507812 8.285156 13.613281 7.882812 13.429688 7.566406 C 13.246094 7.25 12.84375 7.140625 12.527344 7.324219 L 11.09375 8.148438 L 9.441406 5.285156 L 10.875 4.457031 C 11.191406 4.277344 11.300781 3.871094 11.117188 3.554688 C 10.933594 3.238281 10.53125 3.128906 10.210938 3.3125 L 8.78125 4.140625 L 7.789062 2.421875 C 7.605469 2.105469 7.203125 1.996094 6.882812 2.179688 C 6.566406 2.363281 6.457031 2.765625 6.640625 3.082031 L 7.632812 4.800781 L 4.769531 6.457031 L 3.777344 4.738281 C 3.59375 4.417969 3.191406 4.3125 2.875 4.496094 Z M 5.429688 7.601562 L 8.296875 5.949219 L 9.949219 8.8125 L 7.085938 10.464844 Z M 5.429688 7.601562 "/>
</g>
</svg>

<svg xmlns="http://www.w3.org/2000/svg" width="16" height="16"><path d="M2.875 4.496a.656.656 0 0 0-.242.902l.992 1.72-1.434.827a.66.66 0 1 0 .66 1.145l1.434-.828 1.652 2.867-1.43.824a.663.663 0 0 0 .66 1.148l1.435-.828.66 1.145a.66.66 0 0 0 .902.242.656.656 0 0 0 .242-.902l-.66-1.145 2.863-1.656.664 1.145c.184.32.586.425.903.242a.659.659 0 0 0 .242-.903l-.66-1.144 1.43-.828a.656.656 0 0 0 .242-.903.66.66 0 0 0-.903-.242l-1.433.824L9.44 5.285l1.434-.828a.659.659 0 0 0 .242-.902.663.663 0 0 0-.906-.243l-1.43.829-.992-1.72a.663.663 0 0 0-1.148.661l.992 1.719L4.77 6.457l-.993-1.719a.656.656 0 0 0-.902-.242zM5.43 7.602l2.867-1.653 1.652 2.864-2.863 1.652zm0 0" fill="#bdbdbd"/></svg>
